icons/src/svg/tool_inactive.svg

<svg width="32" height="32" viewBox="0 0 32 32" fill="none" xmlns="http://www.w3.org/2000/svg">
<path d="M24.5801 20.0531C24.8524 19.8377 25.1151 19.6042 25.3666 19.3527C28.0356 16.6837 28.6742 12.7561 27.2889 9.4846C27.1594 9.17858 26.8861 8.95701 26.5599 8.89346C26.2337 8.82991 25.8973 8.93268 25.6623 9.16767L20.717 14.1129C20.3065 14.5234 19.7619 14.7181 19.2241 14.6971L20.8947 16.3677C21.3432 16.1732 21.7633 15.8927 22.13 15.526L25.8931 11.7629C26.2803 13.9385 25.6327 16.2605 23.9536 17.9396C23.7009 18.1923 23.4337 18.4216 23.1546 18.6276L24.5801 20.0531Z" fill="#0D0F13"/>
<path d="M12.5592 16.5175C12.5103 16.6279 12.4409 16.7304 12.3523 16.819L6.58404 22.5873C5.8031 23.3682 5.80302 24.6348 6.58451 25.4163C7.366 26.1978 8.63261 26.1977 9.41354 25.4168L15.1818 19.6485C15.2704 19.5599 15.3729 19.4905 15.4833 19.4416L17.9676 21.9259C17.3483 21.8541 16.735 21.718 16.1387 21.5177L10.8266 26.8298C9.26497 28.3915 6.73306 28.391 5.17145 26.8294C3.60984 25.2677 3.60935 22.7358 5.17099 21.1742L10.4831 15.8621C10.2828 15.2658 10.1467 14.6525 10.0749 14.0332L12.5592 16.5175Z" fill="#0D0F13"/>
<path d="M15.6329 11.1051C15.8274 10.6566 16.1079 10.2365 16.4746 9.8698L20.2377 6.10669C18.0621 5.71954 15.7401 6.36712 14.061 8.04623C13.8083 8.29891 13.579 8.56614 13.373 8.84525L11.9475 7.41966C12.1629 7.14739 12.3964 6.88469 12.6479 6.63317C15.3169 3.96421 19.2445 3.32559 22.516 4.71087C22.822 4.84045 23.0436 5.11369 23.1072 5.43988C23.1707 5.76606 23.0679 6.1025 22.833 6.33749L17.8877 11.2828C17.4772 11.6933 17.2825 12.2379 17.3035 12.7757L15.6329 11.1051Z" fill="#0D0F13"/>
<path fill-rule="evenodd" clip-rule="evenodd" d="M2.29289 2.29289C2.68342 1.90237 3.31658 1.90237 3.70711 2.29289L29.7071 28.2929C30.0976 28.6834 30.0976 29.3166 29.7071 29.7071C29.3166 30.0976 28.6834 30.0976 28.2929 29.7071L2.29289 3.70711C1.90237 3.31658 1.90237 2.68342 2.29289 2.29289Z" fill="#0D0F13"/>
</svg>

<?xml version="1.0" encoding="utf-8"?>
<!-- Generator: Adobe Illustrator 26.0.1, SVG Export Plug-In . SVG Version: 6.00 Build 0)  -->
<svg version="1.1" id="Layer_1" xmlns="http://www.w3.org/2000/svg" xmlns:xlink="http://www.w3.org/1999/xlink" x="0px" y="0px"
	 viewBox="0 0 32 32" style="enable-background:new 0 0 32 32;" xml:space="preserve">
<style type="text/css">
	.st0{fill:#0D0F13;}
</style>
<path class="st0" d="M24.6,20.1c0.3-0.2,0.5-0.4,0.8-0.7c2.7-2.7,3.3-6.6,1.9-9.9c-0.1-0.3-0.4-0.5-0.7-0.6c-0.3-0.1-0.7,0-0.9,0.3
	l-4.9,4.9c-0.4,0.4-1,0.6-1.5,0.6l1.7,1.7c0.4-0.2,0.9-0.5,1.2-0.8l3.8-3.8c0.4,2.2-0.3,4.5-1.9,6.2c-0.3,0.3-0.5,0.5-0.8,0.7
	L24.6,20.1z M12.6,16.5c0,0.1-0.1,0.2-0.2,0.3l-5.8,5.8c-0.8,0.8-0.8,2,0,2.8s2,0.8,2.8,0l5.8-5.8c0.1-0.1,0.2-0.2,0.3-0.2l2.5,2.5
	c-0.6-0.1-1.2-0.2-1.8-0.4l-5.3,5.3c-1.6,1.6-4.1,1.6-5.7,0c-1.6-1.6-1.6-4.1,0-5.7l5.3-5.3c-0.2-0.6-0.3-1.2-0.4-1.8L12.6,16.5z
	 M15.6,11.1c0.2-0.4,0.5-0.9,0.8-1.2l3.8-3.8c-2.2-0.4-4.5,0.3-6.2,1.9c-0.3,0.3-0.5,0.5-0.7,0.8l-1.4-1.4c0.2-0.3,0.4-0.5,0.7-0.8
	c2.7-2.7,6.6-3.3,9.9-1.9c0.3,0.1,0.5,0.4,0.6,0.7c0.1,0.3,0,0.7-0.3,0.9l-4.9,4.9c-0.4,0.4-0.6,1-0.6,1.5L15.6,11.1z M2.3,2.3
	c0.4-0.4,1-0.4,1.4,0l26,26c0.4,0.4,0.4,1,0,1.4c-0.4,0.4-1,0.4-1.4,0l-26-26C1.9,3.3,1.9,2.7,2.3,2.3z"/>
</svg>
